docs/themes/v2/source/images/new/searchicon.svg

<svg fill="none" height="16" viewBox="0 0 16 16" width="16" xmlns="http://www.w3.org/2000/svg"><path clip-rule="evenodd" d="m13 6.5c0 1.43389-.4643 2.75933-1.2507 3.8342l4.0477 4.0486-1.4142 1.4142-4.0486-4.0477c-1.07487.7864-2.40031 1.2507-3.8342 1.2507-3.58985 0-6.5-2.9101-6.5-6.5 0-3.58985 2.91015-6.5 6.5-6.5 3.5899 0 6.5 2.91015 6.5 6.5zm-6.5 4.5c2.48528 0 4.5-2.01472 4.5-4.5s-2.01472-4.5-4.5-4.5-4.5 2.01472-4.5 4.5 2.01472 4.5 4.5 4.5z" fill="#000" fill-opacity=".15" fill-rule="evenodd"/></svg>

<svg width="16" height="16" viewBox="0 0 16 16" fill="none" xmlns="http://www.w3.org/2000/svg">
<path fill-rule="evenodd" clip-rule="evenodd" d="M13 6.5C13 7.93389 12.5357 9.25933 11.7493 10.3342L15.797 14.3828L14.3828 15.797L10.3342 11.7493C9.25933 12.5357 7.93389 13 6.5 13C2.91015 13 0 10.0899 0 6.5C0 2.91015 2.91015 0 6.5 0C10.0899 0 13 2.91015 13 6.5ZM6.5 11C8.98528 11 11 8.98528 11 6.5C11 4.01472 8.98528 2 6.5 2C4.01472 2 2 4.01472 2 6.5C2 8.98528 4.01472 11 6.5 11Z" fill="black" fill-opacity="0.15"/>
</svg>
